_includes/icons/ios-css.svg

<svg fill="#666" height="50" viewBox="0 0 50 50" width="50" xmlns="http://www.w3.org/2000/svg"><path d="m5.953125 4c-.511719 0-1.03125.1875-1.398437.554688-.367188.367187-.554688.886718-.554688 1.398437v38.09375c0 .507813.1875 1.03125.554688 1.398438.367187.367187.886718.554687 1.398437.554687h38.09375c.507813 0 1.03125-.1875 1.398438-.554687.367187-.367188.554687-.886719.554687-1.398438v-38.09375c0-.511719-.1875-1.03125-.554687-1.398437-.367188-.367188-.886719-.554688-1.398438-.554688zm.046875 2h38v38h-38zm14.453125 13.355469c-1.964844 0-4.078125 1.484375-4.078125 5.296875 0 2.863281 1.230469 4.992187 3.8125 4.992187.6875 0 1.242188-.105468 1.527344-.238281l-.195313-1.652344c-.238281.078125-.617187.152344-.945312.152344-1.199219 0-2.113281-.945312-2.113281-3.359375 0-2.507812 1.003906-3.46875 2.113281-3.46875.433594 0 .691406.09375.914062.199219l.332032-1.652344c-.195313-.136719-.675782-.269531-1.367188-.269531zm5.144531 0c-2.113281 0-3.191406 1.347656-3.191406 2.96875 0 .914062.523438 1.980469 1.90625 2.820312.851563.554688 1.300781.914063 1.300781 1.652344 0 .65625-.449218 1.140625-1.378906 1.140625-.570312 0-1.257812-.167969-1.664062-.390625l-.285157 1.691406c.328125.195313 1.125.40625 1.933594.40625 1.980469 0 3.34375-1.214843 3.34375-3.058593 0-1.066407-.492187-2.085938-1.828125-2.898438-1.09375-.65625-1.394531-.972656-1.394531-1.574219 0-.539062.40625-1.050781 1.246094-1.050781.570312 0 1.003906.167969 1.289062.347656l.3125-1.695312c-.296875-.179688-.929687-.359375-1.589844-.359375zm5.914063 0c-2.117188 0-3.199219 1.347656-3.199219 2.96875 0 .914062.527344 1.980469 1.90625 2.820312.855469.554688 1.308594.914063 1.308594 1.652344 0 .65625-.453125 1.140625-1.382813 1.140625-.570312 0-1.257812-.167969-1.664062-.390625l-.285156 1.691406c.328125.195313 1.125.40625 1.933593.40625 1.980469 0 3.34375-1.214843 3.34375-3.058593 0-1.066407-.492187-2.085938-1.828125-2.898438-1.09375-.65625-1.394531-.972656-1.394531-1.574219 0-.539062.402344-1.050781 1.246094-1.050781.566406 0 1.003906.167969 1.289062.347656l.3125-1.695312c-.296875-.179688-.929687-.359375-1.585937-.359375z"/></svg>

<svg xmlns="http://www.w3.org/2000/svg" viewBox="0 0 50 50" width="50" height="50" fill="#666"><path d="M 5.953125 4 C 5.441406 4 4.921875 4.1875 4.554688 4.554688 C 4.1875 4.921875 4 5.441406 4 5.953125 L 4 44.046875 C 4 44.554688 4.1875 45.078125 4.554688 45.445313 C 4.921875 45.8125 5.441406 46 5.953125 46 L 44.046875 46 C 44.554688 46 45.078125 45.8125 45.445313 45.445313 C 45.8125 45.078125 46 44.558594 46 44.046875 L 46 5.953125 C 46 5.441406 45.8125 4.921875 45.445313 4.554688 C 45.078125 4.1875 44.558594 4 44.046875 4 Z M 6 6 L 44 6 L 44 44 L 6 44 Z M 20.453125 19.355469 C 18.488281 19.355469 16.375 20.839844 16.375 24.652344 C 16.375 27.515625 17.605469 29.644531 20.1875 29.644531 C 20.875 29.644531 21.429688 29.539063 21.714844 29.40625 L 21.519531 27.753906 C 21.28125 27.832031 20.902344 27.90625 20.574219 27.90625 C 19.375 27.90625 18.460938 26.960938 18.460938 24.546875 C 18.460938 22.039063 19.464844 21.078125 20.574219 21.078125 C 21.007813 21.078125 21.265625 21.171875 21.488281 21.277344 L 21.820313 19.625 C 21.625 19.488281 21.144531 19.355469 20.453125 19.355469 Z M 25.597656 19.355469 C 23.484375 19.355469 22.40625 20.703125 22.40625 22.324219 C 22.40625 23.238281 22.929688 24.304688 24.3125 25.144531 C 25.164063 25.699219 25.613281 26.058594 25.613281 26.796875 C 25.613281 27.453125 25.164063 27.9375 24.234375 27.9375 C 23.664063 27.9375 22.976563 27.769531 22.570313 27.546875 L 22.285156 29.238281 C 22.613281 29.433594 23.410156 29.644531 24.21875 29.644531 C 26.199219 29.644531 27.5625 28.429688 27.5625 26.585938 C 27.5625 25.519531 27.070313 24.5 25.734375 23.6875 C 24.640625 23.03125 24.339844 22.714844 24.339844 22.113281 C 24.339844 21.574219 24.746094 21.0625 25.585938 21.0625 C 26.15625 21.0625 26.589844 21.230469 26.875 21.410156 L 27.1875 19.714844 C 26.890625 19.535156 26.257813 19.355469 25.597656 19.355469 Z M 31.511719 19.355469 C 29.394531 19.355469 28.3125 20.703125 28.3125 22.324219 C 28.3125 23.238281 28.839844 24.304688 30.21875 25.144531 C 31.074219 25.699219 31.527344 26.058594 31.527344 26.796875 C 31.527344 27.453125 31.074219 27.9375 30.144531 27.9375 C 29.574219 27.9375 28.886719 27.769531 28.480469 27.546875 L 28.195313 29.238281 C 28.523438 29.433594 29.320313 29.644531 30.128906 29.644531 C 32.109375 29.644531 33.472656 28.429688 33.472656 26.585938 C 33.472656 25.519531 32.980469 24.5 31.644531 23.6875 C 30.550781 23.03125 30.25 22.714844 30.25 22.113281 C 30.25 21.574219 30.652344 21.0625 31.496094 21.0625 C 32.0625 21.0625 32.5 21.230469 32.785156 21.410156 L 33.097656 19.714844 C 32.800781 19.535156 32.167969 19.355469 31.511719 19.355469 Z"/></svg>
